img/i-dribbble.svg

<svg height="210" viewBox="0 0 210 210" width="210" xmlns="http://www.w3.org/2000/svg"><path d="m112 0c-57.9663 0-105 47.0337-105 105s47.0337 105 105 105c57.85248 0 105-47.0337 105-105s-47.14752-105-105-105zm69.3546 48.40017c12.52713 15.26028 20.04345 34.73442 20.2713 55.80267-2.961-.56952-32.57058-6.60513-62.4078-2.84718-.68334-1.48029-1.25286-3.07482-1.93599-4.66914-1.82217-4.32747-3.87219-8.76897-5.922-12.98262 33.02607-13.43811 48.0585-32.79822 49.99449-35.30373zm-69.3546-32.912103c22.7766 0 43.61721 8.541183 59.4468 22.548813-1.59432 2.27766-15.14646 20.38512-47.03349 32.34273-14.69097-26.99025-30.97626-49.08351-33.48156-52.5 6.71895-1.594362 13.77978-2.391543 21.06825-2.391543zm-38.1507 8.427363c2.39148 3.18864 18.3351 25.39593 33.25371 51.81666-41.90886 11.16045-78.92073 10.93281-82.906698 10.9331597 5.807928-27.7877597 24.598728-50.9060297 49.652988-62.7498197zm-51.588999 81.19839c0-.91098 0-1.82196 0-2.73315 3.872022.11382 47.375349.68334 92.131179-12.75477 2.61933 5.01081 5.01081 10.13544 7.28847 15.26028-1.13883.34167-2.39148.68334-3.53031 1.0248-46.23633 14.91882-70.8351 55.68885-72.88491 59.10534-14.23548-15.8298-23.004429-36.89805-23.004429-59.9025zm89.739699 89.6259c-20.72658 0-39.85905-7.06083-55.00551-18.90462 1.59453-3.30246 19.81581-38.37855 70.37961-56.03031.22785-.11382.34167-.11382.56952-.22785 12.64095 32.6844 17.76579 60.13014 19.13226 67.98813-10.81878 4.66914-22.66257 7.17465-35.07588 7.17465zm49.9947-15.3741c-.91119-5.46651-5.69415-31.6596-17.42412-63.8883 28.12908-4.4415 52.72764 2.84697 55.80246 3.87198-3.87198 24.94023-18.22128 46.46418-38.37834 60.01632z" fill="#3fd5ae" fill-rule="evenodd" transform="translate(-7)"/></svg>

<?xml version="1.0" encoding="UTF-8"?>
<svg width="210px" height="210px" viewBox="0 0 210 210" version="1.1" xmlns="http://www.w3.org/2000/svg" xmlns:xlink="http://www.w3.org/1999/xlink">
    <!-- Generator: Sketch 52.4 (67378) - http://www.bohemiancoding.com/sketch -->
    <title>i-dribbble</title>
    <desc>Created with Sketch.</desc>
    <g id="Page-1" stroke="none" stroke-width="1" fill="none" fill-rule="evenodd">
        <g id="i-dribbble" transform="translate(-7.000000, 0.000000)" fill="#3FD5AE">
            <path d="M112,0 C54.0337,0 7,47.0337 7,105 C7,162.9663 54.0337,210 112,210 C169.85248,210 217,162.9663 217,105 C217,47.0337 169.85248,0 112,0 Z M181.3546,48.40017 C193.88173,63.66045 201.39805,83.13459 201.6259,104.20284 C198.6649,103.63332 169.05532,97.59771 139.2181,101.35566 C138.53476,99.87537 137.96524,98.28084 137.28211,96.68652 C135.45994,92.35905 133.40992,87.91755 131.36011,83.7039 C164.38618,70.26579 179.41861,50.90568 181.3546,48.40017 Z M112,15.488067 C134.7766,15.488067 155.61721,24.02925 171.4468,38.03688 C169.85248,40.31454 156.30034,58.422 124.41331,70.37961 C109.72234,43.38936 93.43705,21.2961 90.93175,17.87961 C97.6507,16.285248 104.71153,15.488067 112,15.488067 Z M73.8493,23.91543 C76.24078,27.10407 92.1844,49.31136 107.10301,75.73209 C65.19415,86.89254 28.18228,86.6649 24.196312,86.6652497 C30.00424,58.87749 48.79504,35.75922 73.8493,23.91543 Z M22.260301,105.11382 C22.260301,104.20284 22.260301,103.29186 22.260301,102.38067 C26.132323,102.49449 69.63565,103.06401 114.39148,89.6259 C117.01081,94.63671 119.40229,99.76134 121.67995,104.88618 C120.54112,105.22785 119.28847,105.56952 118.14964,105.91098 C71.91331,120.8298 47.31454,161.59983 45.26473,165.01632 C31.02925,149.18652 22.260301,128.11827 22.260301,105.11382 Z M112,194.73972 C91.27342,194.73972 72.14095,187.67889 56.99449,175.8351 C58.58902,172.53264 76.8103,137.45655 127.3741,119.80479 C127.60195,119.69097 127.71577,119.69097 127.94362,119.57694 C140.58457,152.26134 145.70941,179.70708 147.07588,187.56507 C136.2571,192.23421 124.41331,194.73972 112,194.73972 Z M161.9947,179.36562 C161.08351,173.89911 156.30055,147.70602 144.57058,115.47732 C172.69966,111.03582 197.29822,118.32429 200.37304,119.3493 C196.50106,144.28953 182.15176,165.81348 161.9947,179.36562 Z" id="Shape"></path>
        </g>
    </g>
</svg>
